X:17
T:Mozart’s Grand Waltz. JNu.17
M:3/4
L:1/4
Q:40
S:James Nuttall MS,c1830?,Rossendale,East Lancs.
R:.Waltz
O:England
A:East Lancashire
N:Sorry, page and a bit of this in three parts, and as it’s not really
N:strictly an undiscovered masterpiece by Herbert Mozart of Rawtenstall
N:I
N:thought I’d give this one a miss….CGP. however if you’re really
N:keen,
N:then by all means let us know.
Z:vmp.Chris Partington
K:Bb
F|”see notes”FFF|FFF|A3|czF|FFF|FFF|F3|”etc…”czF|
W:Sorry, page and a bit of this in three parts, and as it’s not really
W:strictly an undiscovered masterpiece by Herbert Mozart of Rawtenstall
W:I thought I’d give this one a miss….CGP.

